ui_kit/lib/assets/icons/screen_share.svg

<svg width="24" height="24" viewBox="0 0 24 24" fill="none" xmlns="http://www.w3.org/2000/svg">
<path fill-rule="evenodd" clip-rule="evenodd" d="M21.2002 8C21.2002 6.48122 19.969 5.25 18.4502 5.25H5.55042C4.03163 5.25 2.80042 6.48121 2.80042 8V15.6403C2.80042 17.1591 4.03163 18.3903 5.55041 18.3903H8.62527C9.03948 18.3903 9.37527 18.0545 9.37527 17.6403C9.37527 17.2261 9.03948 16.8903 8.62527 16.8903H5.55041C4.86006 16.8903 4.30041 16.3307 4.30041 15.6403L4.30041 8C4.30041 7.30964 4.86006 6.75 5.55042 6.75L18.4502 6.75C19.1406 6.75 19.7002 7.30964 19.7002 8V15.6403C19.7002 16.3307 19.1406 16.8903 18.4502 16.8903H15.7503C15.3361 16.8903 15.0003 17.2261 15.0003 17.6403C15.0003 18.0545 15.3361 18.3903 15.7503 18.3903H18.4502C19.969 18.3903 21.2002 17.1591 21.2002 15.6403V8ZM8.00809 13.307C7.64677 13.6683 7.64677 14.2541 8.00809 14.6154C8.36941 14.9768 8.95522 14.9768 9.31654 14.6154L11.2067 12.7253V19.564C11.2067 20.075 11.6209 20.4892 12.1319 20.4892C12.6428 20.4892 13.0571 20.075 13.0571 19.564L13.0571 12.7253L14.9472 14.6154C15.3085 14.9768 15.8943 14.9768 16.2557 14.6154C16.617 14.2541 16.617 13.6683 16.2557 13.307L12.7861 9.83742C12.6126 9.66391 12.3772 9.56643 12.1319 9.56643C11.8865 9.56643 11.6511 9.66391 11.4776 9.83742L8.00809 13.307Z" fill="white"/>
</svg>

<svg xmlns="http://www.w3.org/2000/svg" width="24" height="24" fill="none" viewBox="0 0 24 24"><path fill="#fff" fill-rule="evenodd" d="M21.2 8a2.75 2.75 0 0 0-2.75-2.75H5.55A2.75 2.75 0 0 0 2.8 8v7.64a2.75 2.75 0 0 0 2.75 2.75h3.075a.75.75 0 0 0 0-1.5H5.55c-.69 0-1.25-.56-1.25-1.25V8c0-.69.56-1.25 1.25-1.25h12.9c.69 0 1.25.56 1.25 1.25v7.64c0 .69-.56 1.25-1.25 1.25h-2.7a.75.75 0 0 0 0 1.5h2.7a2.75 2.75 0 0 0 2.75-2.75V8ZM8.008 13.307a.925.925 0 1 0 1.309 1.308l1.89-1.89v6.839a.925.925 0 1 0 1.85 0v-6.839l1.89 1.89a.925.925 0 1 0 1.309-1.308l-3.47-3.47a.925.925 0 0 0-1.308 0l-3.47 3.47Z" clip-rule="evenodd"/></svg>
